images/6604927.svg

<?xml version="1.0" encoding="UTF-8"?>
<svg xmlns="http://www.w3.org/2000/svg" xmlns:xlink="http://www.w3.org/1999/xlink" width="300pt" height="300pt" viewBox="0 0 300 300" version="1.1">
<defs>
<g>
<symbol overflow="visible" id="glyph0-0">
<path style="stroke:none;" d="M 0.453125 1.59375 L 0.453125 -6.34375 L 4.953125 -6.34375 L 4.953125 1.59375 Z M 0.953125 1.09375 L 4.453125 1.09375 L 4.453125 -5.84375 L 0.953125 -5.84375 Z M 0.953125 1.09375 "/>
</symbol>
<symbol overflow="visible" id="glyph0-1">
<path style="stroke:none;" d="M 0.890625 -6.5625 L 2.078125 -6.5625 L 4.984375 -1.078125 L 4.984375 -6.5625 L 5.84375 -6.5625 L 5.84375 0 L 4.65625 0 L 1.75 -5.484375 L 1.75 0 L 0.890625 0 Z M 0.890625 -6.5625 "/>
</symbol>
<symbol overflow="visible" id="glyph0-2">
<path style="stroke:none;" d="M 0.890625 -6.5625 L 1.765625 -6.5625 L 1.765625 -3.875 L 5 -3.875 L 5 -6.5625 L 5.890625 -6.5625 L 5.890625 0 L 5 0 L 5 -3.125 L 1.765625 -3.125 L 1.765625 0 L 0.890625 0 Z M 0.890625 -6.5625 "/>
</symbol>
<symbol overflow="visible" id="glyph0-3">
<path style="stroke:none;" d="M 3.546875 -5.953125 C 2.898438 -5.953125 2.382812 -5.710938 2 -5.234375 C 1.625 -4.753906 1.4375 -4.101562 1.4375 -3.28125 C 1.4375 -2.445312 1.625 -1.789062 2 -1.3125 C 2.382812 -0.832031 2.898438 -0.59375 3.546875 -0.59375 C 4.191406 -0.59375 4.703125 -0.832031 5.078125 -1.3125 C 5.453125 -1.789062 5.640625 -2.445312 5.640625 -3.28125 C 5.640625 -4.101562 5.453125 -4.753906 5.078125 -5.234375 C 4.703125 -5.710938 4.191406 -5.953125 3.546875 -5.953125 Z M 3.546875 -6.6875 C 4.460938 -6.6875 5.195312 -6.375 5.75 -5.75 C 6.300781 -5.132812 6.578125 -4.3125 6.578125 -3.28125 C 6.578125 -2.238281 6.300781 -1.410156 5.75 -0.796875 C 5.195312 -0.179688 4.460938 0.125 3.546875 0.125 C 2.617188 0.125 1.878906 -0.179688 1.328125 -0.796875 C 0.773438 -1.410156 0.5 -2.238281 0.5 -3.28125 C 0.5 -4.3125 0.773438 -5.132812 1.328125 -5.75 C 1.878906 -6.375 2.617188 -6.6875 3.546875 -6.6875 Z M 3.546875 -6.6875 "/>
</symbol>
</g>
</defs>
<g id="surface31817">
<rect x="0" y="0" width="300" height="300" style="fill:rgb(100%,100%,100%);fill-opacity:1;stroke:none;"/>
<path style="fill:none;stroke-width:1.2;stroke-linecap:butt;stroke-linejoin:miter;stroke:rgb(0%,0%,0%);stroke-opacity:1;stroke-miterlimit:10;" d="M 184.101562 106.539062 L 193.15625 123.332031 "/>
<path style="fill:none;stroke-width:1.2;stroke-linecap:butt;stroke-linejoin:miter;stroke:rgb(0%,0%,0%);stroke-opacity:1;stroke-miterlimit:10;" d="M 193.15625 123.332031 L 184.894531 140.523438 "/>
<path style="fill:none;stroke-width:1.2;stroke-linecap:butt;stroke-linejoin:miter;stroke:rgb(0%,0%,0%);stroke-opacity:1;stroke-miterlimit:10;" d="M 196.375 126.996094 L 189.765625 140.75 "/>
<path style="fill:none;stroke-width:1.2;stroke-linecap:butt;stroke-linejoin:miter;stroke:rgb(0%,0%,0%);stroke-opacity:1;stroke-miterlimit:10;" d="M 212.0625 125.875 L 193.15625 123.332031 "/>
<path style="fill:none;stroke-width:1.2;stroke-linecap:butt;stroke-linejoin:miter;stroke:rgb(0%,0%,0%);stroke-opacity:1;stroke-miterlimit:10;" d="M 184.894531 140.523438 L 191.792969 147.109375 "/>
<path style="fill:none;stroke-width:1.2;stroke-linecap:butt;stroke-linejoin:miter;stroke:rgb(0%,0%,100%);stroke-opacity:1;stroke-miterlimit:10;" d="M 191.792969 147.109375 L 198.691406 153.695312 "/>
<path style="fill:none;stroke-width:1.2;stroke-linecap:butt;stroke-linejoin:miter;stroke:rgb(0%,0%,0%);stroke-opacity:1;stroke-miterlimit:10;" d="M 184.894531 140.523438 L 166.125 143.945312 "/>
<path style="fill:none;stroke-width:1.2;stroke-linecap:butt;stroke-linejoin:miter;stroke:rgb(0%,0%,100%);stroke-opacity:1;stroke-miterlimit:10;" d="M 198.691406 153.695312 L 215.484375 144.644531 "/>
<path style="fill:none;stroke-width:1.2;stroke-linecap:butt;stroke-linejoin:miter;stroke:rgb(0%,0%,100%);stroke-opacity:1;stroke-miterlimit:10;" d="M 198.691406 153.695312 L 197.421875 163.148438 "/>
<path style="fill:none;stroke-width:1.2;stroke-linecap:butt;stroke-linejoin:miter;stroke:rgb(0%,0%,0%);stroke-opacity:1;stroke-miterlimit:10;" d="M 197.421875 163.148438 L 196.148438 172.601562 "/>
<path style=" stroke:none;fill-rule:nonzero;fill:rgb(100%,100%,100%);fill-opacity:1;" d="M 195.691406 148.195312 L 202.691406 148.195312 L 202.691406 159.195312 L 195.691406 159.195312 Z M 195.691406 148.195312 "/>
<g style="fill:rgb(0%,0%,100%);fill-opacity:1;">
  <use xlink:href="#glyph0-1" x="195.691406" y="156.858398"/>
</g>
<path style="fill:none;stroke-width:1.2;stroke-linecap:butt;stroke-linejoin:miter;stroke:rgb(0%,0%,100%);stroke-opacity:1;stroke-miterlimit:10;" d="M 215.484375 144.644531 L 213.773438 135.257812 "/>
<path style="fill:none;stroke-width:1.2;stroke-linecap:butt;stroke-linejoin:miter;stroke:rgb(0%,0%,0%);stroke-opacity:1;stroke-miterlimit:10;" d="M 213.773438 135.257812 L 212.0625 125.875 "/>
<path style=" stroke:none;fill-rule:nonzero;fill:rgb(100%,100%,100%);fill-opacity:1;" d="M 208.484375 139.144531 L 222.484375 139.144531 L 222.484375 150.144531 L 208.484375 150.144531 Z M 208.484375 139.144531 "/>
<g style="fill:rgb(0%,0%,100%);fill-opacity:1;">
  <use xlink:href="#glyph0-1" x="208.484375" y="147.807617"/>
  <use xlink:href="#glyph0-2" x="215.461914" y="147.807617"/>
</g>
<path style="fill:none;stroke-width:1.2;stroke-linecap:butt;stroke-linejoin:miter;stroke:rgb(0%,0%,0%);stroke-opacity:1;stroke-miterlimit:10;" d="M 212.0625 125.875 L 225.234375 112.078125 "/>
<path style="fill:none;stroke-width:1.2;stroke-linecap:butt;stroke-linejoin:miter;stroke:rgb(0%,0%,0%);stroke-opacity:1;stroke-miterlimit:10;" d="M 216.625 127.59375 L 227.164062 116.554688 "/>
<path style="fill:none;stroke-width:1.2;stroke-linecap:butt;stroke-linejoin:miter;stroke:rgb(0%,0%,0%);stroke-opacity:1;stroke-miterlimit:10;" d="M 225.234375 112.078125 L 243.769531 116.585938 "/>
<path style="fill:none;stroke-width:1.2;stroke-linecap:butt;stroke-linejoin:miter;stroke:rgb(0%,0%,0%);stroke-opacity:1;stroke-miterlimit:10;" d="M 219.871094 93.769531 L 225.234375 112.078125 "/>
<path style="fill:none;stroke-width:1.2;stroke-linecap:butt;stroke-linejoin:miter;stroke:rgb(0%,0%,0%);stroke-opacity:1;stroke-miterlimit:10;" d="M 243.769531 116.585938 L 256.941406 102.785156 "/>
<path style="fill:none;stroke-width:1.2;stroke-linecap:butt;stroke-linejoin:miter;stroke:rgb(0%,0%,0%);stroke-opacity:1;stroke-miterlimit:10;" d="M 241.839844 112.105469 L 252.378906 101.066406 "/>
<path style="fill:none;stroke-width:1.2;stroke-linecap:butt;stroke-linejoin:miter;stroke:rgb(0%,0%,0%);stroke-opacity:1;stroke-miterlimit:10;" d="M 256.941406 102.785156 L 251.578125 84.476562 "/>
<path style="fill:none;stroke-width:1.2;stroke-linecap:butt;stroke-linejoin:miter;stroke:rgb(0%,0%,0%);stroke-opacity:1;stroke-miterlimit:10;" d="M 253.203125 86.027344 L 259.789062 79.128906 "/>
<path style="fill:none;stroke-width:1.2;stroke-linecap:butt;stroke-linejoin:miter;stroke:rgb(100%,0%,0%);stroke-opacity:1;stroke-miterlimit:10;" d="M 259.789062 79.128906 L 266.375 72.230469 "/>
<path style="fill:none;stroke-width:1.2;stroke-linecap:butt;stroke-linejoin:miter;stroke:rgb(0%,0%,0%);stroke-opacity:1;stroke-miterlimit:10;" d="M 249.953125 82.929688 L 256.539062 76.027344 "/>
<path style="fill:none;stroke-width:1.2;stroke-linecap:butt;stroke-linejoin:miter;stroke:rgb(100%,0%,0%);stroke-opacity:1;stroke-miterlimit:10;" d="M 256.539062 76.027344 L 263.125 69.128906 "/>
<path style="fill:none;stroke-width:1.2;stroke-linecap:butt;stroke-linejoin:miter;stroke:rgb(0%,0%,0%);stroke-opacity:1;stroke-miterlimit:10;" d="M 251.578125 84.476562 L 233.042969 79.972656 "/>
<path style=" stroke:none;fill-rule:nonzero;fill:rgb(100%,100%,100%);fill-opacity:1;" d="M 260.75 65.179688 L 268.75 65.179688 L 268.75 76.179688 L 260.75 76.179688 Z M 260.75 65.179688 "/>
<g style="fill:rgb(100%,0%,0%);fill-opacity:1;">
  <use xlink:href="#glyph0-3" x="260.75" y="73.842773"/>
</g>
<path style="fill:none;stroke-width:1.2;stroke-linecap:butt;stroke-linejoin:miter;stroke:rgb(0%,0%,0%);stroke-opacity:1;stroke-miterlimit:10;" d="M 233.042969 79.972656 L 219.871094 93.769531 "/>
<path style="fill:none;stroke-width:1.2;stroke-linecap:butt;stroke-linejoin:miter;stroke:rgb(0%,0%,0%);stroke-opacity:1;stroke-miterlimit:10;" d="M 234.972656 84.449219 L 224.433594 95.488281 "/>
<path style="fill:none;stroke-width:1.2;stroke-linecap:butt;stroke-linejoin:miter;stroke:rgb(0%,0%,0%);stroke-opacity:1;stroke-miterlimit:10;" d="M 196.148438 172.601562 L 178.5 179.851562 "/>
<path style="fill:none;stroke-width:1.2;stroke-linecap:butt;stroke-linejoin:miter;stroke:rgb(0%,0%,0%);stroke-opacity:1;stroke-miterlimit:10;" d="M 196.089844 177.480469 L 181.972656 183.277344 "/>
<path style="fill:none;stroke-width:1.2;stroke-linecap:butt;stroke-linejoin:miter;stroke:rgb(0%,0%,0%);stroke-opacity:1;stroke-miterlimit:10;" d="M 211.246094 184.261719 L 196.148438 172.601562 "/>
<path style="fill:none;stroke-width:1.2;stroke-linecap:butt;stroke-linejoin:miter;stroke:rgb(0%,0%,0%);stroke-opacity:1;stroke-miterlimit:10;" d="M 178.5 179.851562 L 175.957031 198.757812 "/>
<path style="fill:none;stroke-width:1.2;stroke-linecap:butt;stroke-linejoin:miter;stroke:rgb(0%,0%,0%);stroke-opacity:1;stroke-miterlimit:10;" d="M 175.957031 198.757812 L 191.058594 210.414062 "/>
<path style="fill:none;stroke-width:1.2;stroke-linecap:butt;stroke-linejoin:miter;stroke:rgb(0%,0%,0%);stroke-opacity:1;stroke-miterlimit:10;" d="M 180.210938 196.371094 L 192.289062 205.695312 "/>
<path style="fill:none;stroke-width:1.2;stroke-linecap:butt;stroke-linejoin:miter;stroke:rgb(0%,0%,0%);stroke-opacity:1;stroke-miterlimit:10;" d="M 191.058594 210.414062 L 208.703125 203.167969 "/>
<path style="fill:none;stroke-width:1.2;stroke-linecap:butt;stroke-linejoin:miter;stroke:rgb(0%,0%,0%);stroke-opacity:1;stroke-miterlimit:10;" d="M 191.058594 210.414062 L 189.785156 219.867188 "/>
<path style="fill:none;stroke-width:1.2;stroke-linecap:butt;stroke-linejoin:miter;stroke:rgb(100%,0%,0%);stroke-opacity:1;stroke-miterlimit:10;" d="M 189.785156 219.867188 L 188.511719 229.320312 "/>
<path style="fill:none;stroke-width:1.2;stroke-linecap:butt;stroke-linejoin:miter;stroke:rgb(0%,0%,0%);stroke-opacity:1;stroke-miterlimit:10;" d="M 208.703125 203.167969 L 211.246094 184.261719 "/>
<path style="fill:none;stroke-width:1.2;stroke-linecap:butt;stroke-linejoin:miter;stroke:rgb(0%,0%,0%);stroke-opacity:1;stroke-miterlimit:10;" d="M 204.507812 200.675781 L 206.546875 185.550781 "/>
<path style=" stroke:none;fill-rule:nonzero;fill:rgb(100%,100%,100%);fill-opacity:1;" d="M 181.511719 223.820312 L 196.511719 223.820312 L 196.511719 234.820312 L 181.511719 234.820312 Z M 181.511719 223.820312 "/>
<g style="fill:rgb(100%,0%,0%);fill-opacity:1;">
  <use xlink:href="#glyph0-2" x="181.511719" y="232.483398"/>
  <use xlink:href="#glyph0-3" x="188.526367" y="232.483398"/>
</g>
<path style="fill:none;stroke-width:1.2;stroke-linecap:butt;stroke-linejoin:miter;stroke:rgb(0%,0%,0%);stroke-opacity:1;stroke-miterlimit:10;" d="M 166.125 143.945312 L 153.78125 129.40625 "/>
<path style="fill:none;stroke-width:1.2;stroke-linecap:butt;stroke-linejoin:miter;stroke:rgb(0%,0%,0%);stroke-opacity:1;stroke-miterlimit:10;" d="M 161.46875 145.398438 L 151.59375 133.765625 "/>
<path style="fill:none;stroke-width:1.2;stroke-linecap:butt;stroke-linejoin:miter;stroke:rgb(0%,0%,0%);stroke-opacity:1;stroke-miterlimit:10;" d="M 159.707031 161.910156 L 166.125 143.945312 "/>
<path style="fill:none;stroke-width:1.2;stroke-linecap:butt;stroke-linejoin:miter;stroke:rgb(0%,0%,0%);stroke-opacity:1;stroke-miterlimit:10;" d="M 153.78125 129.40625 L 135.011719 132.824219 "/>
<path style="fill:none;stroke-width:1.2;stroke-linecap:butt;stroke-linejoin:miter;stroke:rgb(0%,0%,0%);stroke-opacity:1;stroke-miterlimit:10;" d="M 135.011719 132.824219 L 128.59375 150.789062 "/>
<path style="fill:none;stroke-width:1.2;stroke-linecap:butt;stroke-linejoin:miter;stroke:rgb(0%,0%,0%);stroke-opacity:1;stroke-miterlimit:10;" d="M 138.597656 136.132812 L 133.460938 150.503906 "/>
<path style="fill:none;stroke-width:1.2;stroke-linecap:butt;stroke-linejoin:miter;stroke:rgb(0%,0%,0%);stroke-opacity:1;stroke-miterlimit:10;" d="M 128.59375 150.789062 L 140.9375 165.332031 "/>
<path style="fill:none;stroke-width:1.2;stroke-linecap:butt;stroke-linejoin:miter;stroke:rgb(0%,0%,0%);stroke-opacity:1;stroke-miterlimit:10;" d="M 128.59375 150.789062 L 119.207031 152.5 "/>
<path style="fill:none;stroke-width:1.2;stroke-linecap:butt;stroke-linejoin:miter;stroke:rgb(100%,0%,0%);stroke-opacity:1;stroke-miterlimit:10;" d="M 119.207031 152.5 L 109.824219 154.210938 "/>
<path style="fill:none;stroke-width:1.2;stroke-linecap:butt;stroke-linejoin:miter;stroke:rgb(0%,0%,0%);stroke-opacity:1;stroke-miterlimit:10;" d="M 140.9375 165.332031 L 159.707031 161.910156 "/>
<path style="fill:none;stroke-width:1.2;stroke-linecap:butt;stroke-linejoin:miter;stroke:rgb(0%,0%,0%);stroke-opacity:1;stroke-miterlimit:10;" d="M 142.011719 160.574219 L 157.023438 157.835938 "/>
<path style="fill:none;stroke-width:1.2;stroke-linecap:butt;stroke-linejoin:miter;stroke:rgb(100%,0%,0%);stroke-opacity:1;stroke-miterlimit:10;" d="M 109.824219 154.210938 L 103.652344 146.941406 "/>
<path style="fill:none;stroke-width:1.2;stroke-linecap:butt;stroke-linejoin:miter;stroke:rgb(0%,0%,0%);stroke-opacity:1;stroke-miterlimit:10;" d="M 103.652344 146.941406 L 97.476562 139.667969 "/>
<path style=" stroke:none;fill-rule:nonzero;fill:rgb(100%,100%,100%);fill-opacity:1;" d="M 105.824219 148.710938 L 113.824219 148.710938 L 113.824219 159.710938 L 105.824219 159.710938 Z M 105.824219 148.710938 "/>
<g style="fill:rgb(100%,0%,0%);fill-opacity:1;">
  <use xlink:href="#glyph0-3" x="105.824219" y="157.374023"/>
</g>
<path style="fill:none;stroke-width:1.2;stroke-linecap:butt;stroke-linejoin:miter;stroke:rgb(0%,0%,0%);stroke-opacity:1;stroke-miterlimit:10;" d="M 97.476562 139.667969 L 78.710938 143.089844 "/>
<path style="fill:none;stroke-width:1.2;stroke-linecap:butt;stroke-linejoin:miter;stroke:rgb(0%,0%,0%);stroke-opacity:1;stroke-miterlimit:10;" d="M 78.710938 143.089844 L 72.539062 135.820312 "/>
<path style="fill:none;stroke-width:1.2;stroke-linecap:butt;stroke-linejoin:miter;stroke:rgb(0%,0%,100%);stroke-opacity:1;stroke-miterlimit:10;" d="M 72.539062 135.820312 L 66.363281 128.546875 "/>
<path style="fill:none;stroke-width:1.2;stroke-linecap:butt;stroke-linejoin:miter;stroke:rgb(0%,0%,100%);stroke-opacity:1;stroke-miterlimit:10;" d="M 66.363281 128.546875 L 69.574219 119.566406 "/>
<path style="fill:none;stroke-width:1.2;stroke-linecap:butt;stroke-linejoin:miter;stroke:rgb(0%,0%,0%);stroke-opacity:1;stroke-miterlimit:10;" d="M 69.574219 119.566406 L 72.785156 110.585938 "/>
<path style="fill:none;stroke-width:1.2;stroke-linecap:butt;stroke-linejoin:miter;stroke:rgb(0%,0%,0%);stroke-opacity:1;stroke-miterlimit:10;" d="M 47.597656 131.96875 L 56.980469 130.257812 "/>
<path style="fill:none;stroke-width:1.2;stroke-linecap:butt;stroke-linejoin:miter;stroke:rgb(0%,0%,100%);stroke-opacity:1;stroke-miterlimit:10;" d="M 56.980469 130.257812 L 66.363281 128.546875 "/>
<path style=" stroke:none;fill-rule:nonzero;fill:rgb(100%,100%,100%);fill-opacity:1;" d="M 63.363281 123.046875 L 70.363281 123.046875 L 70.363281 134.046875 L 63.363281 134.046875 Z M 63.363281 123.046875 "/>
<g style="fill:rgb(0%,0%,100%);fill-opacity:1;">
  <use xlink:href="#glyph0-1" x="63.363281" y="131.709961"/>
</g>
<path style="fill:none;stroke-width:1.2;stroke-linecap:butt;stroke-linejoin:miter;stroke:rgb(0%,0%,0%);stroke-opacity:1;stroke-miterlimit:10;" d="M 72.785156 110.585938 L 60.4375 96.042969 "/>
<path style="fill:none;stroke-width:1.2;stroke-linecap:butt;stroke-linejoin:miter;stroke:rgb(0%,0%,0%);stroke-opacity:1;stroke-miterlimit:10;" d="M 60.4375 96.042969 L 41.671875 99.464844 "/>
<path style="fill:none;stroke-width:1.2;stroke-linecap:butt;stroke-linejoin:miter;stroke:rgb(0%,0%,0%);stroke-opacity:1;stroke-miterlimit:10;" d="M 41.671875 99.464844 L 35.25 117.429688 "/>
<path style="fill:none;stroke-width:1.2;stroke-linecap:butt;stroke-linejoin:miter;stroke:rgb(0%,0%,0%);stroke-opacity:1;stroke-miterlimit:10;" d="M 35.25 117.429688 L 47.597656 131.96875 "/>
</g>
</svg>

<svg xmlns="http://www.w3.org/2000/svg" xmlns:xlink="http://www.w3.org/1999/xlink" width="300pt" height="300pt" viewBox="0 0 300 300"><defs><symbol overflow="visible"><path d="M.453 1.594v-7.938h4.5v7.938zm.5-.5h3.5v-6.938h-3.5zm0 0"/></symbol><symbol overflow="visible" id="a"><path d="M.89-6.563H2.08l2.906 5.485v-5.484h.86V0H4.656L1.75-5.484V0H.89zm0 0"/></symbol><symbol overflow="visible" id="b"><path d="M.89-6.563h.876v2.688H5v-2.688h.89V0H5v-3.125H1.766V0H.89zm0 0"/></symbol><symbol overflow="visible" id="c"><path d="M3.547-5.953c-.65 0-1.164.242-1.547.72-.375.48-.563 1.13-.563 1.952 0 .835.188 1.49.563 1.967.383.48.898.72 1.547.72.644 0 1.156-.24 1.53-.72.376-.476.564-1.132.564-1.968 0-.822-.187-1.474-.562-1.954-.375-.477-.887-.72-1.53-.72zm0-.734c.914 0 1.648.312 2.203.937.55.617.828 1.438.828 2.47 0 1.042-.277 1.87-.828 2.483-.555.617-1.29.922-2.203.922-.93 0-1.668-.305-2.22-.922C.774-1.41.5-2.237.5-3.28c0-1.033.273-1.853.828-2.47.55-.625 1.29-.938 2.22-.938zm0 0"/></symbol></defs><g><path fill="#fff" d="M0 0h300v300H0z"/><path d="M184.102 106.54l9.054 16.792M193.156 123.332l-8.26 17.19M196.375 126.996l-6.61 13.754M212.063 125.875l-18.907-2.543M184.895 140.523l6.898 6.586" stroke-width="1.2" stroke="#000" stroke-miterlimit="10" fill="none"/><path d="M191.793 147.11l6.898 6.585" stroke-width="1.2" stroke="#00f" stroke-miterlimit="10" fill="none"/><path d="M184.895 140.523l-18.77 3.422" stroke-width="1.2" stroke="#000" stroke-miterlimit="10" fill="none"/><path d="M198.69 153.695l16.794-9.05M198.69 153.695l-1.268 9.453" stroke-width="1.2" stroke="#00f" stroke-miterlimit="10" fill="none"/><path d="M197.422 163.148l-1.274 9.454" stroke-width="1.2" stroke="#000" stroke-miterlimit="10" fill="none"/><path d="M195.69 148.195h7v11h-7zm0 0" fill="#fff"/><use xlink:href="#a" x="195.691" y="156.858" fill="#00f"/><path d="M215.484 144.645l-1.71-9.387" stroke-width="1.2" stroke="#00f" stroke-miterlimit="10" fill="none"/><path d="M213.773 135.258l-1.71-9.383" stroke-width="1.2" stroke="#000" stroke-miterlimit="10" fill="none"/><path d="M208.484 139.145h14v11h-14zm0 0" fill="#fff"/><g fill="#00f"><use xlink:href="#a" x="208.484" y="147.808"/><use xlink:href="#b" x="215.462" y="147.808"/></g><path d="M212.063 125.875l13.17-13.797M216.625 127.594l10.54-11.04M225.234 112.078l18.536 4.508M219.87 93.77l5.364 18.308M243.77 116.586l13.17-13.8M241.84 112.105l10.54-11.04M256.94 102.785l-5.362-18.308M253.203 86.027l6.586-6.898" stroke-width="1.2" stroke="#000" stroke-miterlimit="10" fill="none"/><path d="M259.79 79.13l6.585-6.9" stroke-width="1.2" stroke="#f00" stroke-miterlimit="10" fill="none"/><path d="M249.953 82.93l6.586-6.903" stroke-width="1.2" stroke="#000" stroke-miterlimit="10" fill="none"/><path d="M256.54 76.027l6.585-6.898" stroke-width="1.2" stroke="#f00" stroke-miterlimit="10" fill="none"/><path d="M251.578 84.477l-18.535-4.504" stroke-width="1.2" stroke="#000" stroke-miterlimit="10" fill="none"/><path d="M260.75 65.18h8v11h-8zm0 0" fill="#fff"/><use xlink:href="#c" x="260.75" y="73.843" fill="#f00"/><path d="M233.043 79.973L219.87 93.77M234.973 84.45l-10.54 11.038M196.148 172.602l-17.648 7.25M196.09 177.48l-14.117 5.797M211.246 184.262l-15.098-11.66M178.5 179.852l-2.543 18.906M175.957 198.758l15.102 11.656M180.21 196.37l12.08 9.325M191.06 210.414l17.643-7.246M191.06 210.414l-1.275 9.453" stroke-width="1.2" stroke="#000" stroke-miterlimit="10" fill="none"/><path d="M189.785 219.867l-1.273 9.453" stroke-width="1.2" stroke="#f00" stroke-miterlimit="10" fill="none"/><path d="M208.703 203.168l2.543-18.906M204.508 200.676l2.04-15.125" stroke-width="1.2" stroke="#000" stroke-miterlimit="10" fill="none"/><path d="M181.512 223.82h15v11h-15zm0 0" fill="#fff"/><g fill="#f00"><use xlink:href="#b" x="181.512" y="232.483"/><use xlink:href="#c" x="188.526" y="232.483"/></g><path d="M166.125 143.945l-12.344-14.54M161.47 145.398l-9.876-11.632M159.707 161.91l6.418-17.965M153.78 129.406l-18.768 3.418M135.012 132.824l-6.418 17.965M138.598 136.133l-5.137 14.37M128.594 150.79l12.344 14.542M128.594 150.79l-9.387 1.71" stroke-width="1.2" stroke="#000" stroke-miterlimit="10" fill="none"/><path d="M119.207 152.5l-9.383 1.71" stroke-width="1.2" stroke="#f00" stroke-miterlimit="10" fill="none"/><path d="M140.938 165.332l18.77-3.422M142.012 160.574l15.01-2.738" stroke-width="1.2" stroke="#000" stroke-miterlimit="10" fill="none"/><path d="M109.824 154.21l-6.172-7.27" stroke-width="1.2" stroke="#f00" stroke-miterlimit="10" fill="none"/><path d="M103.652 146.94l-6.175-7.272" stroke-width="1.2" stroke="#000" stroke-miterlimit="10" fill="none"/><path d="M105.824 148.71h8v11h-8zm0 0" fill="#fff"/><use xlink:href="#c" x="105.824" y="157.374" fill="#f00"/><path d="M97.477 139.668L78.71 143.09M78.71 143.09l-6.17-7.27" stroke-width="1.2" stroke="#000" stroke-miterlimit="10" fill="none"/><path d="M72.54 135.82l-6.177-7.273M66.363 128.547l3.21-8.98" stroke-width="1.2" stroke="#00f" stroke-miterlimit="10" fill="none"/><path d="M69.574 119.566l3.21-8.98M47.598 131.97l9.382-1.712" stroke-width="1.2" stroke="#000" stroke-miterlimit="10" fill="none"/><path d="M56.98 130.258l9.383-1.71" stroke-width="1.2" stroke="#00f" stroke-miterlimit="10" fill="none"/><path d="M63.363 123.047h7v11h-7zm0 0" fill="#fff"/><use xlink:href="#a" x="63.363" y="131.71" fill="#00f"/><path d="M72.785 110.586L60.438 96.043M60.438 96.043l-18.766 3.422M41.672 99.465L35.25 117.43M35.25 117.43l12.348 14.54" stroke-width="1.2" stroke="#000" stroke-miterlimit="10" fill="none"/></g></svg>
